img/users/hooroo.svg

<svg xmlns="http://www.w3.org/2000/svg" viewBox="0 0 467 200"><path fill="#0A0A08" d="M466.044667,80.5153291 C466.044667,57.114843 450.946951,35.0298246 418.85665,35.0298246 C394.569584,35.0298246 378.059843,48.2728275 369.296808,64.2350916 C363.528586,60.1603215 355.944398,57.6718853 346.438254,57.6718853 C316.813992,57.6718853 301.925902,82.8777536 301.925902,102.048016 C301.925902,115.01662 308.702209,138.457147 338.636198,138.457147 C353.338217,138.457147 364.740407,132.129476 372.361103,123.048392 C379.448315,131.799726 390.854038,138.457147 408.864129,138.457147 C445.27883,138.457147 466.044667,108.260274 466.044667,80.5153291 M360.001468,92.9056922 C360.001468,102.927742 354.994019,120.465741 339.956365,120.465741 C328.759088,120.465741 324.917532,111.475338 324.917532,102.927742 C324.917532,91.5808031 331.258102,76.0990321 344.519832,75.5054817 C350.863934,75.2098842 355.286081,78.6027781 357.503632,82.0015603 C358.973363,84.3510304 360.001468,87.7439242 360.001468,92.9056922 M436.226089,80.1396495 C436.226089,92.9716422 429.800728,115.42763 410.550551,115.42763 C396.215965,115.42763 391.307441,103.922881 391.307441,92.9716422 C391.307441,78.4355476 399.422757,58.6234501 416.409454,57.8720908 C424.518882,57.4881674 430.182292,61.8255599 433.012231,66.1735516 C434.905922,69.1990095 436.226089,73.5340467 436.226089,80.1396495 M356.450796,22.0058701 C357.186839,18.713079 353.644411,17.9970501 352.453787,17.8922366 C319.207016,17.9723188 303.878477,44.695038 303.878477,44.695038 L305.470685,37.2049982 C306.270322,33.468222 303.803106,30.4121444 299.979215,30.4121444 L284.728402,30.4121444 C280.909222,30.4121444 277.085331,33.4635113 276.24212,37.190866 L255.073521,130.925888 C254.223244,134.654421 256.656308,137.703432 260.480199,137.703432 L275.920616,137.703432 C279.739797,137.703432 283.556622,134.654421 284.406899,130.930599 L284.603569,130.074426 C285.365521,125.821826 291.63072,98.6315686 292.318479,95.5613588 C297.827614,70.5698281 314.385639,48.7827626 342.722709,46.6947373 C342.753328,46.6900266 342.776882,46.6876712 342.806324,46.6829605 C349.76988,45.5700536 351.837867,41.8156123 352.617483,39.3413083 L356.395445,22.3462194 C356.411933,22.2366953 356.418999,22.1271711 356.450796,22.0058701 M258.72665,80.5153291 C258.72665,57.114843 243.633645,35.0298246 211.544522,35.0298246 C187.253922,35.0298246 170.743004,48.2728275 161.977614,64.2350916 C156.210569,60.1603215 148.624026,57.6718853 139.120238,57.6718853 C120.66381,57.6718853 107.930854,67.4595773 100.953165,79.4707277 L102.222692,74.0675354 C102.981111,70.4461718 103.744241,66.6340242 103.744241,62.8289426 C103.744241,45.880961 90.6049883,37.4923519 76.5071135,37.4923519 C61.6543529,37.4923519 52.9690445,46.4191604 52.9690445,46.4191604 C50.3051574,49.1572646 48.8118732,48.3505543 49.6597948,44.6220219 L58.1920062,6.79496534 C59.0399279,3.06054454 56.6009755,0.008 52.7782622,0.008 L37.1541284,0.008 C33.3349481,0.008 29.5098794,3.05583382 28.6619577,6.78201087 L0.336664531,131.099007 C-0.515967777,134.828717 1.92180692,137.874196 5.73863193,137.874196 L21.3674764,137.874196 C25.192545,137.874196 29.0152584,134.828717 29.866713,131.099007 L40.8920496,82.8247581 C42.7928073,76.5394841 44.1271062,71.4012697 47.3645181,67.3959826 C50.6007523,63.209333 55.5481395,59.9754259 60.8865128,59.9754259 C64.3135294,59.9754259 72.3122568,61.3073811 72.3122568,71.9700887 C72.3122568,75.0155672 71.4066294,78.9195738 71.4066294,78.9195738 C70.5516417,82.6398624 69.1502157,88.7308194 68.3070047,92.4628848 L58.3521692,135.740241 C57.5042476,139.46524 59.9373116,142.513074 63.763558,142.513074 L79.2004424,142.513074 C83.0243334,142.513074 86.8552904,139.46524 87.7267654,135.740241 L94.796312,105.662314 C95.98458,118.933581 103.985663,138.457147 131.317003,138.457147 C146.0202,138.457147 157.420035,132.130654 165.040731,123.050747 C172.132653,131.799726 183.536022,138.457147 201.543757,138.457147 C237.96788,138.457147 258.72665,108.260274 258.72665,80.5153291 M152.686984,92.9056922 C152.686984,102.927742 147.676003,120.465741 132.639526,120.465741 C121.439894,120.465741 117.601871,111.475338 117.601871,102.927742 C117.601871,91.5808031 123.941263,76.0943213 137.213592,75.5090148 C143.548273,75.2098842 147.978663,78.6074888 150.179727,81.9980273 C151.657701,84.3569187 152.686984,87.7427465 152.686984,92.9056922 M228.905717,80.1396495 C228.905717,92.9716422 222.489777,115.42763 203.238423,115.42763 C188.896771,115.42763 183.987069,103.922881 183.987069,92.9716422 C183.987069,78.4355476 192.102385,58.6234501 209.09026,57.8720908 C217.203221,57.4881674 222.871342,61.832626 225.697747,66.1735516 C227.58555,69.1990095 228.905717,73.5340467 228.905717,80.1396495 M304.19527,180.018624 C331.155645,196.809974 363.860689,202.454591 394.982946,199.069941 C419.370114,196.424873 449.768104,186.955155 461.394052,164.068137 C464.95179,157.059768 460.448384,135.404602 455.798947,139.633648 C416.3965,175.420964 356.920686,189.694437 307.214813,168.433794 C303.552263,166.865125 299.569386,177.145087 304.19527,180.018624"/></svg>

<svg xmlns="http://www.w3.org/2000/svg" viewBox="0 0 467 200"><path fill="#0A0A08" d="M466.045 80.515c0-23.4-15.098-45.485-47.188-45.485-24.287 0-40.797 13.243-49.56 29.205-5.768-4.075-13.353-6.563-22.859-6.563-29.624 0-44.512 25.206-44.512 44.376 0 12.969 6.776 36.41 36.71 36.41 14.702 0 26.104-6.329 33.725-15.41 7.087 8.752 18.493 15.41 36.503 15.41 36.415 0 57.18-30.198 57.18-57.943m-106.043 12.39c0 10.023-5.007 27.56-20.045 27.56-11.197 0-15.038-8.99-15.038-17.537 0-11.347 6.34-26.829 19.602-27.423 6.344-.295 10.766 3.098 12.984 6.497 1.47 2.349 2.497 5.742 2.497 10.904m76.225-12.766c0 12.832-6.425 35.288-25.675 35.288-14.335 0-19.244-11.505-19.244-22.456 0-14.536 8.116-34.349 25.102-35.1 8.11-.384 13.773 3.954 16.603 8.302 1.894 3.025 3.214 7.36 3.214 13.966m-79.775-58.134c.736-3.293-2.807-4.009-3.997-4.114-33.247.08-48.576 26.803-48.576 26.803l1.593-7.49c.8-3.737-1.668-6.793-5.492-6.793h-15.25c-3.82 0-7.644 3.052-8.487 6.779l-21.168 93.735c-.85 3.728 1.582 6.777 5.406 6.777h15.44c3.82 0 7.637-3.049 8.487-6.772l.197-.857c.762-4.252 7.027-31.442 7.714-34.513 5.51-24.991 22.068-46.778 50.405-48.866l.083-.012c6.964-1.113 9.032-4.867 9.811-7.342l3.778-16.995c.017-.11.024-.219.056-.34m-97.724 58.51c0-23.401-15.093-45.486-47.182-45.486-24.291 0-40.802 13.243-49.567 29.205-5.767-4.075-13.354-6.563-22.858-6.563-18.456 0-31.19 9.788-38.167 21.799l1.27-5.403c.758-3.622 1.521-7.434 1.521-11.24 0-16.947-13.139-25.336-27.237-25.336-14.853 0-23.538 8.927-23.538 8.927-2.664 2.738-4.157 1.932-3.31-1.797l8.533-37.827C59.04 3.061 56.601.008 52.778.008H37.154c-3.82 0-7.644 3.048-8.492 6.774L.337 131.099c-.853 3.73 1.585 6.775 5.402 6.775h15.628c3.826 0 7.648-3.045 8.5-6.775l11.025-48.274c1.9-6.286 3.235-11.424 6.473-15.429 3.236-4.187 8.183-7.42 13.522-7.42 3.427 0 11.425 1.331 11.425 11.994 0 3.046-.905 6.95-.905 6.95-.855 3.72-2.257 9.81-3.1 13.543l-9.955 43.277c-.848 3.725 1.585 6.773 5.412 6.773H79.2c3.824 0 7.655-3.048 8.527-6.773l7.07-30.078c1.188 13.272 9.189 32.795 36.52 32.795 14.703 0 26.103-6.326 33.724-15.406 7.092 8.749 18.495 15.406 36.503 15.406 36.424 0 57.183-30.197 57.183-57.942m-106.04 12.39c0 10.023-5.011 27.56-20.047 27.56-11.2 0-15.038-8.99-15.038-17.537 0-11.347 6.34-26.834 19.612-27.419 6.334-.3 10.765 3.098 12.966 6.489 1.478 2.359 2.507 5.745 2.507 10.908m76.219-12.766c0 12.832-6.416 35.288-25.668 35.288-14.341 0-19.25-11.505-19.25-22.456 0-14.536 8.114-34.349 25.102-35.1 8.113-.384 13.781 3.96 16.608 8.302 1.888 3.025 3.208 7.36 3.208 13.966m75.29 99.879c26.96 16.791 59.665 22.436 90.787 19.05 24.387-2.644 54.785-12.114 66.411-35 3.558-7.01-.946-28.664-5.595-24.435-39.402 35.787-98.878 50.06-148.584 28.8-3.663-1.569-7.646 8.711-3.02 11.585"/></svg>
